dist/assets/img/svg/icon-adv-01.svg

<svg width="99" height="96" viewBox="0 0 99 96" fill="none" xmlns="http://www.w3.org/2000/svg">
<path d="M28.3098 43.9051C28.3098 43.9051 28.3498 43.9551 28.3798 43.9751L38.2198 53.8151L41.6498 50.3851L37.9498 46.6851L36.2798 45.0051L44.8598 36.4251L45.9898 36.5551C46.2799 36.5851 46.5698 36.6051 46.8698 36.6051C47.4598 36.6051 48.0398 36.5351 48.6098 36.4051L42.2898 30.0851C42.1598 29.9551 42.0198 29.8451 41.8898 29.7251C43.8398 22.7251 42.0598 14.9051 36.5598 9.40512C31.0798 3.93512 23.3298 2.15512 16.3698 4.02512L28.1598 15.8151L25.0598 27.3651L13.5098 30.4651L1.71985 18.6751C-0.160153 25.6351 1.62985 33.3851 7.08985 38.8451C12.8298 44.5851 21.0798 46.2651 28.2998 43.9051H28.3098ZM63.1598 50.9651C62.9698 51.8151 62.9198 52.6951 63.0198 53.5851L63.1498 54.7151L62.3398 55.5251L56.2398 61.6251L54.5598 63.2951L49.1798 57.9151L45.7498 61.3451L76.8798 92.4751C78.7998 94.3951 81.3099 95.3551 83.8298 95.3551C86.3498 95.3551 88.8598 94.3951 90.7798 92.4751C94.6198 88.6351 94.6198 82.4151 90.7798 78.5751L63.1598 50.9551V50.9651ZM87.1998 89.2651L82.2598 90.5851L78.2498 86.5751L79.5698 81.6351L84.5098 80.3151L88.5198 84.3251L87.1998 89.2651ZM49.2098 54.6151L54.5898 59.9951L60.6898 53.8951C60.3598 50.9151 61.3298 47.8251 63.6098 45.5451C65.8898 43.2651 68.9798 42.2951 71.9598 42.6251L98.6398 15.9451L83.6998 0.995117L57.0198 27.6751C57.3498 30.6551 56.3798 33.7451 54.0998 36.0251C51.8198 38.3051 48.7298 39.2751 45.7498 38.9451L39.6498 45.0451L45.0298 50.4251L18.6698 76.7851L17.7098 75.8251L12.6498 79.9051L4.13985 93.3451L6.30985 95.5151L19.7498 87.0051L23.8198 81.9451L22.8498 80.9751L49.2098 54.6151Z" fill="#EC8020"/>
</svg>

<svg width="99" height="96" fill="none" xmlns="http://www.w3.org/2000/svg"><path d="M28.31 43.905s.04.05.07.07l9.84 9.84 3.43-3.43-3.7-3.7-1.67-1.68 8.58-8.58 1.13.13c.29.03.58.05.88.05.59 0 1.17-.07 1.74-.2l-6.32-6.32c-.13-.13-.27-.24-.4-.36 1.95-7 .17-14.82-5.33-20.32-5.48-5.47-13.23-7.25-20.19-5.38l11.79 11.79-3.1 11.55-11.55 3.1-11.79-11.79c-1.88 6.96-.09 14.71 5.37 20.17 5.74 5.74 13.99 7.42 21.21 5.06h.01zm34.85 7.06a7.92 7.92 0 00-.14 2.62l.13 1.13-.81.81-6.1 6.1-1.68 1.67-5.38-5.38-3.43 3.43 31.13 31.13a9.79 9.79 0 006.95 2.88c2.52 0 5.03-.96 6.95-2.88a9.826 9.826 0 000-13.9l-27.62-27.62v.01zm24.04 38.3l-4.94 1.32-4.01-4.01 1.32-4.94 4.94-1.32 4.01 4.01-1.32 4.94zm-37.99-34.65l5.38 5.38 6.1-6.1c-.33-2.98.64-6.07 2.92-8.35 2.28-2.28 5.37-3.25 8.35-2.92l26.68-26.68L83.7.995l-26.68 26.68c.33 2.98-.64 6.07-2.92 8.35a10.182 10.182 0 01-8.35 2.92l-6.1 6.1 5.38 5.38-26.36 26.36-.96-.96-5.06 4.08-8.51 13.44 2.17 2.17 13.44-8.51 4.07-5.06-.97-.97 26.36-26.36z" fill="#EC8020"/></svg> 90.7798 78.5751L63.1598 50.9551V50.9651ZM87.1998 89.2651L82.2598 90.5851L78.2498 86.5751L79.5698 81.6351L84.5098 80.3151L88.5198 84.3251L87.1998 89.2651ZM49.2098 54.6151L54.5898 59.9951L60.6898 53.8951C60.3598 50.9151 61.3298 47.8251 63.6098 45.5451C65.8898 43.2651 68.9798 42.2951 71.9598 42.6251L98.6398 15.9451L83.6998 0.995117L57.0198 27.6751C57.3498 30.6551 56.3798 33.7451 54.0998 36.0251C51.8198 38.3051 48.7298 39.2751 45.7498 38.9451L39.6498 45.0451L45.0298 50.4251L18.6698 76.7851L17.7098 75.8251L12.6498 79.9051L4.13985 93.3451L6.30985 95.5151L19.7498 87.0051L23.8198 81.9451L22.8498 80.9751L49.2098 54.6151Z" fill="#EC8020"/>
</svg>
